X:1
T:Pill, The
L:1/8
M:6/8
I:linebreak $
K:G
V:1 treble 
V:1
 G2 d BGd | BGd BGd | F2 A AEA | EAE F2 D | G2 d BGd | BGd BGd | EGE FAF | G3 G,3 ::$ GBG BGB | %9
 FAF AFA | EGE GEG | EAG F2 D | GBG E2 E | FAF D2 D | EGE FAF | G3 G,3 :| %16
